flaticon/household/dressing-1.svg

<svg xmlns="http://www.w3.org/2000/svg" width="32" height="32" viewBox="0 0 24 24">
    <path d="M7.199219 12.398438L5.601562 12.398438C5.378906 12.398438 5.199219 12.578125 5.199219 12.800781 5.199219 13.019531 5.378906 13.199219 5.601562 13.199219L7.199219 13.199219C7.421875 13.199219 7.601562 13.019531 7.601562 12.800781 7.601562 12.578125 7.421875 12.398438 7.199219 12.398438zM18.398438 12.398438L16.800781 12.398438C16.578125 12.398438 16.398438 12.578125 16.398438 12.800781 16.398438 13.019531 16.578125 13.199219 16.800781 13.199219L18.398438 13.199219C18.621094 13.199219 18.800781 13.019531 18.800781 12.800781 18.800781 12.578125 18.621094 12.398438 18.398438 12.398438zM18.398438 12.398438"/>
    <path d="M 23.601562 11.199219 L 20 11.199219 L 20 2.398438 C 20 2.25 19.914062 2.109375 19.777344 2.042969 L 15.777344 0.0429688 C 15.773438 0.0390625 15.769531 0.0390625 15.765625 0.0351562 C 15.753906 0.03125 15.746094 0.03125 15.738281 0.0273438 C 15.695312 0.0117188 15.65625 0.00390625 15.613281 0.00390625 C 15.609375 0.00390625 15.605469 0 15.601562 0 L 8.398438 0 C 8.394531 0 8.390625 0.00390625 8.386719 0.00390625 C 8.34375 0.00390625 8.304688 0.0117188 8.261719 0.0273438 C 8.253906 0.03125 8.246094 0.0351562 8.234375 0.0390625 C 8.230469 0.0390625 8.226562 0.0390625 8.222656 0.0429688 L 4.222656 2.042969 C 4.085938 2.109375 4 2.25 4 2.398438 L 4 11.199219 L 0.398438 11.199219 C 0.179688 11.199219 0 11.378906 0 11.601562 C 0 11.820312 0.179688 12 0.398438 12 L 0.398438 14.398438 L 1.199219 14.398438 L 1.199219 24 L 3.199219 24 L 3.199219 14.398438 L 20.800781 14.398438 L 20.800781 24 L 22.800781 24 L 22.800781 14.398438 L 23.601562 14.398438 L 23.601562 12 C 23.820312 12 24 11.820312 24 11.601562 C 24 11.378906 23.820312 11.199219 23.601562 11.199219 Z M 19.199219 11.199219 L 16 11.199219 L 16 1.046875 L 19.199219 2.648438 Z M 15.199219 11.199219 L 8.800781 11.199219 L 8.800781 0.800781 L 15.199219 0.800781 Z M 4.800781 2.648438 L 8 1.046875 L 8 11.199219 L 4.800781 11.199219 Z M 2.398438 23.199219 L 2 23.199219 L 2 14.398438 L 2.398438 14.398438 Z M 11.601562 13.601562 L 1.199219 13.601562 L 1.199219 12 L 11.601562 12 Z M 22 23.199219 L 21.601562 23.199219 L 21.601562 14.398438 L 22 14.398438 Z M 22.800781 13.601562 L 12.398438 13.601562 L 12.398438 12 L 22.800781 12 Z M 22.800781 13.601562"/>
</svg>

<svg xmlns="http://www.w3.org/2000/svg" width="32" height="32" viewBox="0 0 24 24">
    <path d="M7.2 12.398H5.601a.401.401 0 0 0 0 .8l1.597.001a.401.401 0 1 0 0-.8zm0 0M18.398 12.398h-1.597a.401.401 0 0 0 0 .8l1.597.001a.401.401 0 1 0 0-.8zm0 0"/>
    <path d="M23.602 11.2H20V2.397a.398.398 0 0 0-.223-.355l-4-2-.011-.008c-.012-.004-.02-.004-.028-.008a.354.354 0 0 0-.125-.023c-.004 0-.008-.004-.011-.004H8.398c-.003 0-.007.004-.011.004a.354.354 0 0 0-.125.023c-.008.004-.016.008-.028.012-.004 0-.007 0-.011.004l-4 2A.398.398 0 0 0 4 2.398V11.2H.398a.401.401 0 0 0 0 .801v2.398H1.2V24h2v-9.602h17.602V24h2v-9.602h.8V12a.4.4 0 0 0 0-.8zm-4.403 0H16V1.046l3.2 1.601zm-4 0H8.801V.8h6.398zM4.801 2.647L8 1.047v10.152H4.8zM2.398 23.2H2v-8.8h.398zm9.204-9.597H1.199V12h10.403zM22 23.199h-.398v-8.8H22zm.8-9.597H12.399V12h10.403zm0 0"/>
</svg>
